sequoia/src/pages/Main/Utility/assets/coin.svg

<svg width="112" height="120" viewBox="0 0 112 120" fill="none" xmlns="http://www.w3.org/2000/svg">
<g filter="url(#filter0_dii_370_25055)">
<path d="M52.6266 11.8554C54.7272 10.7001 57.2729 10.7001 59.3734 11.8554L92.3734 30.0054C94.6103 31.2356 96 33.5861 96 36.1389V71.8611C96 74.4139 94.6103 76.7644 92.3734 77.9946L59.3734 96.1446C57.2728 97.2999 54.7271 97.2999 52.6266 96.1446L19.6266 77.9946C17.3897 76.7644 16 74.4139 16 71.8611V36.1389C16 33.5861 17.3897 31.2356 19.6266 30.0054L52.6266 11.8554Z" fill="url(#paint0_radial_370_25055)" fill-opacity="0.179" shape-rendering="crispEdges"/>
</g>
<path d="M55.5 38C51.3891 38 47.4467 39.633 44.5399 42.5399C41.633 45.4466 40 49.3892 40 53.5C40 57.6108 41.633 61.5533 44.5399 64.4601C47.4466 67.367 51.3892 69 55.5 69C59.6108 69 63.5533 67.367 66.4601 64.4601C69.367 61.5534 71 57.6108 71 53.5C70.9955 49.3906 69.3612 45.4506 66.4551 42.5449C63.5493 39.6389 59.6097 38.0045 55.5 38ZM55.5 67.0623C51.9031 67.0623 48.4536 65.6334 45.91 63.09C43.3666 60.5464 41.9377 57.0965 41.9377 53.5C41.9377 49.9035 43.3666 46.4536 45.91 43.91C48.4536 41.3666 51.9035 39.9377 55.5 39.9377C59.0965 39.9377 62.5464 41.3666 65.09 43.91C67.6334 46.4536 69.0623 49.9035 69.0623 53.5C69.0584 57.0958 67.6284 60.543 65.0857 63.0856C62.5431 65.6283 59.0955 67.0583 55.5001 67.0622L55.5 67.0623Z" fill="white" stroke="white"/>
<path d="M54.4892 49.9966H59.0053C59.3605 49.9966 59.6889 49.8193 59.8668 49.5314C60.0444 49.2433 60.0444 48.8887 59.8668 48.6009C59.6889 48.3128 59.3605 48.1356 59.0053 48.1356H56.7495V46.9305C56.7495 46.598 56.5601 46.2908 56.2522 46.1246C55.9444 45.9585 55.5654 45.9585 55.2574 46.1246C54.9497 46.2908 54.76 46.598 54.76 46.9305V48.1356H54.4892C53.5763 48.1026 52.6884 48.4189 52.0303 49.0113C51.3719 49.6039 51 50.4216 51 51.2761C51 52.1306 51.3719 52.9482 52.0303 53.5408C52.6884 54.1332 53.5763 54.4495 54.4892 54.4167H56.6379C57.1319 54.4167 57.5882 54.663 57.8351 55.0632C58.0822 55.4635 58.0822 55.9566 57.8351 56.3566C57.5882 56.7569 57.1317 57.0034 56.6376 57.0034H52.1216C51.7663 57.0034 51.4379 57.1808 51.2601 57.4687C51.0824 57.7565 51.0824 58.1113 51.2601 58.3992C51.4379 58.6871 51.7663 58.8644 52.1216 58.8644H54.7601V60.0695C54.7601 60.4019 54.9497 60.7091 55.2575 60.8752C55.5654 61.0416 55.9444 61.0416 56.2522 60.8752C56.5602 60.7091 56.7496 60.4019 56.7496 60.0695V58.8599C57.8933 58.767 58.9076 58.1358 59.4413 57.1852C59.9751 56.2345 59.9549 55.0952 59.3876 54.1616C58.8203 53.2282 57.784 52.629 56.6376 52.5718H54.4891C54.1119 52.593 53.7422 52.4678 53.4673 52.2256C53.1922 51.9834 53.0363 51.6457 53.0363 51.2924C53.0363 50.939 53.1922 50.6013 53.4673 50.3591C53.7422 50.117 54.1119 49.9917 54.4891 50.0129L54.4892 49.9966Z" fill="white" stroke="white"/>
<defs>
<filter id="filter0_dii_370_25055" x="0" y="0.98877" width="112" height="118.022" filterUnits="userSpaceOnUse" color-interpolation-filters="sRGB">
<feFlood flood-opacity="0" result="BackgroundImageFix"/>
<feColorMatrix in="SourceAlpha" type="matrix" values="0 0 0 0 0 0 0 0 0 0 0 0 0 0 0 0 0 0 127 0" result="hardAlpha"/>
<feOffset dy="6"/>
<feGaussianBlur stdDeviation="8"/>
<feComposite in2="hardAlpha" operator="out"/>
<feColorMatrix type="matrix" values="0 0 0 0 0 0 0 0 0 0 0 0 0 0 0 0 0 0 0.25 0"/>
<feBlend mode="normal" in2="BackgroundImageFix" result="effect1_dropShadow_370_25055"/>
<feBlend mode="normal" in="SourceGraphic" in2="effect1_dropShadow_370_25055" result="shape"/>
<feColorMatrix in="SourceAlpha" type="matrix" values="0 0 0 0 0 0 0 0 0 0 0 0 0 0 0 0 0 0 127 0" result="hardAlpha"/>
<feOffset dx="-1.12" dy="1.12"/>
<feGaussianBlur stdDeviation="0.56"/>
<feComposite in2="hardAlpha" operator="arithmetic" k2="-1" k3="1"/>
<feColorMatrix type="matrix" values="0 0 0 0 1 0 0 0 0 1 0 0 0 0 1 0 0 0 0.558 0"/>
<feBlend mode="normal" in2="shape" result="effect2_innerShadow_370_25055"/>
<feColorMatrix in="SourceAlpha" type="matrix" values="0 0 0 0 0 0 0 0 0 0 0 0 0 0 0 0 0 0 127 0" result="hardAlpha"/>
<feOffset dx="1.12" dy="-1.12"/>
<feGaussianBlur stdDeviation="0.56"/>
<feComposite in2="hardAlpha" operator="arithmetic" k2="-1" k3="1"/>
<feColorMatrix type="matrix" values="0 0 0 0 0.84 0 0 0 0 0.84 0 0 0 0 0.84 0 0 0 0.558 0"/>
<feBlend mode="normal" in2="effect2_innerShadow_370_25055" result="effect3_innerShadow_370_25055"/>
</filter>
<radialGradient id="paint0_radial_370_25055" cx="0" cy="0" r="1" gradientUnits="userSpaceOnUse" gradientTransform="translate(56 54) rotate(90) scale(44 40)">
<stop stop-color="white"/>
<stop offset="1" stop-color="white" stop-opacity="0.21"/>
</radialGradient>
</defs>
</svg>

<svg width="112" height="120" fill="none" xmlns="http://www.w3.org/2000/svg"><g filter="url(#a)"><path d="M52.63 11.86a7 7 0 0 1 6.74 0l33 18.15A7 7 0 0 1 96 36.14v35.72A7 7 0 0 1 92.37 78l-33 18.15a7 7 0 0 1-6.74 0L19.63 78A7 7 0 0 1 16 71.86V36.14A7 7 0 0 1 19.63 30l33-18.15Z" fill="url(#b)" fill-opacity=".18" shape-rendering="crispEdges"/></g><path d="M55.5 38a15.5 15.5 0 1 0 0 31 15.5 15.5 0 0 0 0-31Zm0 29.06a13.56 13.56 0 1 1 0-27.12 13.56 13.56 0 0 1 0 27.12Z" fill="#fff" stroke="#fff"/><path d="M54.49 50H59c.35 0 .68-.18.86-.47a.88.88 0 0 0 0-.93 1 1 0 0 0-.86-.46h-2.26v-1.2a.92.92 0 0 0-.5-.82c-.3-.16-.68-.16-1 0-.3.17-.49.48-.49.81v1.2h-.27a3.5 3.5 0 0 0-2.46.88A3.05 3.05 0 0 0 51 51.28c0 .85.37 1.67 1.03 2.26.66.6 1.55.91 2.46.88h2.15c.5 0 .95.24 1.2.64.24.4.24.9 0 1.3-.25.4-.7.64-1.2.64h-4.52c-.35 0-.68.18-.86.47a.88.88 0 0 0 0 .93 1 1 0 0 0 .86.46h2.64v1.2c0 .34.19.65.5.82.3.16.68.16 1 0 .3-.17.49-.48.49-.81v-1.21a3.39 3.39 0 0 0 2.7-1.67c.53-.96.5-2.1-.06-3.03a3.4 3.4 0 0 0-2.75-1.59h-2.15c-.38.02-.75-.1-1.02-.34a1.24 1.24 0 0 1-.43-.94c0-.35.15-.69.43-.93.27-.24.64-.37 1.02-.35V50Z" fill="#fff" stroke="#fff"/><defs><radialGradient id="b" cx="0" cy="0" r="1" gradientUnits="userSpaceOnUse" gradientTransform="matrix(0 44 -40 0 56 54)"><stop stop-color="#fff"/><stop offset="1" stop-color="#fff" stop-opacity=".21"/></radialGradient><filter id="a" x="0" y=".99" width="112" height="118.02" filterUnits="userSpaceOnUse" color-interpolation-filters="sRGB"><feFlood flood-opacity="0" result="BackgroundImageFix"/><feColorMatrix in="SourceAlpha" values="0 0 0 0 0 0 0 0 0 0 0 0 0 0 0 0 0 0 127 0" result="hardAlpha"/><feOffset dy="6"/><feGaussianBlur stdDeviation="8"/><feComposite in2="hardAlpha" operator="out"/><feColorMatrix values="0 0 0 0 0 0 0 0 0 0 0 0 0 0 0 0 0 0 0.25 0"/><feBlend in2="BackgroundImageFix" result="effect1_dropShadow_370_25055"/><feBlend in="SourceGraphic" in2="effect1_dropShadow_370_25055" result="shape"/><feColorMatrix in="SourceAlpha" values="0 0 0 0 0 0 0 0 0 0 0 0 0 0 0 0 0 0 127 0" result="hardAlpha"/><feOffset dx="-1.12" dy="1.12"/><feGaussianBlur stdDeviation=".56"/><feComposite in2="hardAlpha" operator="arithmetic" k2="-1" k3="1"/><feColorMatrix values="0 0 0 0 1 0 0 0 0 1 0 0 0 0 1 0 0 0 0.558 0"/><feBlend in2="shape" result="effect2_innerShadow_370_25055"/><feColorMatrix in="SourceAlpha" values="0 0 0 0 0 0 0 0 0 0 0 0 0 0 0 0 0 0 127 0" result="hardAlpha"/><feOffset dx="1.12" dy="-1.12"/><feGaussianBlur stdDeviation=".56"/><feComposite in2="hardAlpha" operator="arithmetic" k2="-1" k3="1"/><feColorMatrix values="0 0 0 0 0.84 0 0 0 0 0.84 0 0 0 0 0.84 0 0 0 0.558 0"/><feBlend in2="effect2_innerShadow_370_25055" result="effect3_innerShadow_370_25055"/></filter></defs></svg>
